/* XPM */
static char *door[] = {
/* columns rows colors chars-per-pixel */
"64 64 4 1 ",
"  c black",
". c #6B470A",
"X c #9C5A3C",
"o c #99D9EA",
/* pixels */
"XXXXXXXXXXXXXXXXXXXXXXXXXXXXXXXXXXXXXXXXXXXXXXXXXXXXXXXXXXXXXXXX",
"X..............................................................X",
"X..............................................................X",
"X...XXXXXXXXXXXXXXXXXXXXXXXXXXXXXXXXXXXXXXXXXXXXXXXXXXXXXXXXX..X",
"X...XoooooooooooooooooooooooooXoooooooooooooooooooooooooooooX..X",
"X...XoooooooooooooooooooooooooXoooooooooooooooooooooooooooooX..X",
"X...XoooooooooooooooooooooooooXoooooooooooooooooooooooooooooX..X",
"X...XoooooooooooooooooooooooooXoooooooooooooooooooooooooooooX..X",
"X...XoooooooooooooooooooooooooXoooooooooooooooooooooooooooooX..X",
"X...XoooooooooooooooooooooooooXoooooooooooooooooooooooooooooX..X",
"X...XoooooooooooooooooooooooooXoooooooooooooooooooooooooooooX..X",
"X...XoooooooooooooooooooooooooXoooooooooooooooooooooooooooooX..X",
"X...XoooooooooooooooooooooooooXoooooooooooooooooooooooooooooX..X",
"X...XoooooooooooooooooooooooooXoooooooooooooooooooooooooooooX..X",
"X...XoooooooooooooooooooooooooXoooooooooooooooooooooooooooooX..X",
"X...XoooooooooooooooooooooooooXoooooooooooooooooooooooooooooX..X",
"X...XoooooooooooooooooooooooooXoooooooooooooooooooooooooooooX..X",
"X...XoooooooooooooooooooooooooXoooooooooooooooooooooooooooooX..X",
"X...XoooooooooooooooooooooooooXoooooooooooooooooooooooooooooX..X",
"X...XoooooooooooooooooooooooooXoooooooooooooooooooooooooooooX..X",
"X...XXXXXXXXXXXXXXXXXXXXXXXXXXXXXXXXXXXXXXXXXXXXXXXXXXXXXXXXX..X",
"X...X.........................X.............................X..X",
"X...X.........................X.............................X..X",
"X...X.........................X.............................X..X",
"X...X.........................X.............................X..X",
"X...X.........................X.............................X..X",
"X...X.........................X.............................X..X",
"X...X.........................X.............................X..X",
"X...X.........................X.......................   ...X..X",
"X...X.........................X......................     ..X..X",
"X...X.........................X.....................       .X..X",
"X...X.........................X.....................       .X..X",
"X...X.........................X.....................       .X..X",
"X...X.........................X......................     ..X..X",
"X...X.........................X.......................   ...X..X",
"X...X.........................X.............................X..X",
"X...X.........................X.............................X..X",
"X...X.........................X.............................X..X",
"X...X.........................X.............................X..X",
"X...X.........................X.............................X..X",
"X...X.........................X.............................X..X",
"X...X.........................X.............................X..X",
"X...X.........................X.............................X..X",
"X...X.........................X.............................X..X",
"X...X.........................X.............................X..X",
"X...X.........................X.............................X..X",
"X...X.........................X.............................X..X",
"X...X.........................X.............................X..X",
"X...X.........................X.............................X..X",
"X...X.........................X.............................X..X",
"X...X.........................X.............................X..X",
"X...X.........................X.............................X..X",
"X...X.........................X.............................X..X",
"X...X.........................X.............................X..X",
"X...X.........................X.............................X..X",
"X...X.........................X.............................X..X",
"X...X.........................X.............................X..X",
"X...X.........................X.............................X..X",
"X...X.........................X.............................X..X",
"X...X.........................X.............................X..X",
"X...XXXXXXXXXXXXXXXXXXXXXXXXXXXXXXXXXXXXXXXXXXXXXXXXXXXXXXXXX..X",
"X..............................................................X",
"X..............................................................X",
"XXXXXXXXXXXXXXXXXXXXXXXXXXXXXXXXXXXXXXXXXXXXXXXXXXXXXXXXXXXXXXXX"
};
