/* XPM */
static char * fire_flame_xpm[] = {
"64 64 6 1",
" 	c None",
".	c #FF5252",
"+	c #FFA04D",
"@	c #8E2C2C",
"#	c #FFDF46",
"$	c #406CC3",
"                                                                ",
"                                                                ",
"                                                                ",
"                                                                ",
"                                                                ",
"                                                                ",
"                                                                ",
"                                                                ",
"                                                                ",
"                            ................                    ",
"                          ......................                ",
"                      ........++++++++.............             ",
"                    .++++++++++++++++++++++++........           ",
"                  ..+++++++++++++++++++++++++++........         ",
"                ..++++++++++++++++++++++++++++++.........       ",
"               ..++++++++++++++++++++++++++++++++.........      ",
"             ..++++++++++++++++++++++++@@@@@++++++.........     ",
"            ..++++++++++++++++++++++@@@++++++++++++.........    ",
"           ..+++++++++++++++@@++++@@@@@@@+++++++++++........    ",
"          ..++++++++++@@@@@+++++@@+++++++++++@@++++++ .......   ",
"          .++++++++++@@@@@++++++++++++++++++++@@++...    .....  ",
"         ..+++++++++@@@@@++++++++++++++++++++++@++....    ....  ",
"        ..+++++++++@@@@@@@+++++++@@@@@+++++++++++++....     ..  ",
"        .+++++++++@@@@@@@@@+++@@@@@@@@@@+++++++...++...      .  ",
"       ..++++++++@@@@@@@@@@@@@@@@@@@@@@@@++++++....++...        ",
"       ..++++++++@@@@@@@@@@@@@@@@@@@@@@@@@++++++....+...        ",
"      ...+++++++@@@@@@@@@@@@@@@@@@@@@@@@@@@+++++.........       ",
"      ..++++++++@@@@@@@@@@@@@@@@@@@@@@@+++++++++.........       ",
"      ..++++++++@@@@@@@@@@@@@@@@@@@@@@@+++++++++.........       ",
"     ...+++++++@@@@@@@@@@@@@@@@@@@@@@@@+++++++++..........      ",
"     ...+++++++@@@@@@@@@@@@@@@@@@@@@@@@++++@++++...........     ",
"     ...+++++++@@@@@#####@@@@@@@@@@@@@@@+++@++++...........     ",
"     ...+++++++@@@@########@@@@@@@@@@@@@+++@@+++...........     ",
"     ...+++++++@@@###########@@@@@@@@@@@@+++@@++............    ",
"     ...+++++++@@###$$$$########@@@@@@@@@+++++++++..........    ",
"     ....++++++@@###$$#$#########@@@@@@@@++++++++++...  ....    ",
"     ....++++++@@###$###$#########@@@@@@@++++++++++...   ...    ",
"     ....++++++@@#######$$#########@@@@@@+++++++++++...   ...   ",
"      ....+++++@@@##################@@@@@+++++++++++...   ...   ",
"      ....++++++@@###################@@@+++++++++++++...  ...   ",
"      .....+++++@@@##########@@@@@@##@@@++++++++++++++..   .    ",
"       ....++++++@@########@@@@@@@@@@@@+++++++++++++++....      ",
"       .....++++++@@@###@@@@@@@@##@@@@@+++++++++++++++....      ",
"        .....++++++@@####@@@@@@@##@@@@+++++....+++++++....      ",
"        ......++++++@######@@@@@#@@@@+++++......+++.+++....     ",
"         ......++++++@@@@@@@@@@@@@@@+++++.......+++..++  ..     ",
"          ......++++++@@@@@@@@@@@@++++++........+++..++  ..     ",
"          .......++++++++@@@@@@++++++++.........++...++   ..    ",
"           ........+++++++++++++++++++...........+....+   ..    ",
"            ........++++++++++++++++.............+....+         ",
"             .........+++++++++++......................         ",
"               ........++++++++++.......................        ",
"                ........++++++++++.......................       ",
"                  .......+++++++++...........      ......       ",
"                    ......+++++++++........          .....      ",
"                      ......+++++++......              ...      ",
"                          ....++++++.                    ..     ",
"                           ........++                     ..    ",
"                             ........                      .    ",
"                               ......                           ",
"                                 .....                          ",
"                                                                ",
"                                                                ",
"                                                                "};
